icons-rebrand/svg/clean-up-regular.svg

<svg width="32" height="32" viewBox="0 0 32 32" fill="none" xmlns="http://www.w3.org/2000/svg">
<path d="M26.6355 4.09485C25.3914 3.22371 23.6766 3.52607 22.8055 4.77018L18.4265 11.0239C17.4635 10.9417 16.5655 11.1445 15.7585 11.5017C14.3458 12.127 13.2168 13.2221 12.4692 13.9697C11.0049 15.434 9.12231 16.8213 7.31786 17.2724C7.24246 17.2912 7.1317 17.3167 7.00791 17.3451C6.81379 17.3897 6.58755 17.4416 6.4155 17.4871C6.09226 17.5724 5.71509 17.6911 5.38889 17.8808C5.05959 18.0722 4.69739 18.3868 4.5658 18.8928C4.4355 19.3938 4.57905 19.9005 4.8486 20.3721C5.94203 22.2855 8.32205 24.2413 10.5253 25.6893C11.6432 26.4239 12.7507 27.0506 13.6838 27.4969C14.1498 27.7198 14.5819 27.9023 14.9565 28.0307C15.3111 28.1523 15.6821 28.25 15.9996 28.25C16.6206 28.25 17.1909 27.9449 17.6791 27.5544C18.1776 27.1556 18.6741 26.6007 19.1622 25.95C20.1399 24.6464 21.1635 22.8495 22.1706 20.8354C23.1092 18.9582 23.5445 17.1812 23.3579 15.6213C23.2948 15.0939 23.1612 14.5986 22.9585 14.1406L27.3108 7.92485C28.182 6.68074 27.8796 4.96599 26.6355 4.09485ZM22.0667 12.799C21.7339 12.4449 21.3397 12.1295 20.8854 11.8569C20.5831 11.6755 20.2843 11.5264 19.9898 11.4065L24.0342 5.63055C24.4302 5.06504 25.2096 4.92761 25.7751 5.32358C26.3406 5.71955 26.4781 6.49898 26.0821 7.06449L22.0667 12.799ZM12.5305 20.5303C12.8234 20.2374 12.8234 19.7626 12.5305 19.4697C12.2376 19.1768 11.7628 19.1768 11.4699 19.4697C10.1077 20.8318 9.22511 21.2908 7.89957 21.7425C7.15414 21.0297 6.54054 20.3096 6.15093 19.6279C6.02432 19.4063 6.01687 19.3005 6.01772 19.2734C6.02788 19.2597 6.05933 19.2261 6.1428 19.1776C6.29007 19.0919 6.5087 19.0139 6.79847 18.9374C6.98035 18.8893 7.12366 18.8571 7.27366 18.8233C7.39681 18.7956 7.52446 18.7669 7.68167 18.7276C9.87711 18.1787 11.9942 16.566 13.5299 15.0303C14.2823 14.2779 15.2366 13.373 16.3656 12.8733C17.4455 12.3953 18.6846 12.2857 20.1137 13.1431C21.1686 13.7761 21.7337 14.6722 21.8685 15.7995C22.0077 16.9633 21.6931 18.4362 20.8289 20.1646C19.836 22.1505 18.8596 23.8536 17.9622 25.05C17.5127 25.6493 17.1029 26.0944 16.742 26.3831C16.3708 26.6801 16.1286 26.75 15.9996 26.75C15.942 26.75 15.7662 26.7227 15.4431 26.6118C15.1399 26.5079 14.7635 26.3505 14.331 26.1437C14.0275 25.9986 13.7012 25.8313 13.3592 25.6449C13.9794 25.2454 14.6195 24.7146 15.1994 24.1733C16.1657 23.2715 17.0831 22.2277 17.6242 21.416C17.854 21.0714 17.7609 20.6057 17.4162 20.376C17.0716 20.1462 16.6059 20.2393 16.3762 20.584C15.9173 21.2723 15.0847 22.2285 14.176 23.0767C13.2888 23.9047 12.4324 24.5314 11.8492 24.7574C11.6834 24.653 11.5165 24.5457 11.3491 24.4357C10.606 23.9474 9.86892 23.416 9.18444 22.8647C10.3182 22.4006 11.272 21.7888 12.5305 20.5303Z" fill="#0F0F0F"/>
</svg>

<svg xmlns="http://www.w3.org/2000/svg" width="32" height="32" viewBox="0 0 32 32"><path d="M26.636 4.095a2.75 2.75 0 0 0-3.83.675l-4.38 6.254c-.962-.082-1.86.12-2.667.478-1.413.625-2.542 1.72-3.29 2.468-1.464 1.464-3.347 2.851-5.151 3.302-.076.02-.186.045-.31.073-.194.045-.42.097-.593.142-.323.085-.7.204-1.026.394-.33.191-.692.506-.823 1.012-.13.5.013 1.008.283 1.48 1.093 1.912 3.473 3.868 5.676 5.316a27.785 27.785 0 0 0 3.159 1.808c.466.223.898.405 1.273.534.354.121.725.219 1.043.219.62 0 1.19-.305 1.68-.696.498-.398.994-.953 1.482-1.604.978-1.304 2.002-3.1 3.009-5.115.938-1.877 1.373-3.654 1.187-5.214a5.156 5.156 0 0 0-.4-1.48l4.353-6.216a2.75 2.75 0 0 0-.675-3.83Zm-4.57 8.704a5.48 5.48 0 0 0-1.18-.942 6.518 6.518 0 0 0-.896-.45l4.044-5.776a1.25 1.25 0 0 1 2.048 1.433L22.067 12.8Zm-9.535 7.731a.75.75 0 1 0-1.061-1.06c-1.362 1.362-2.245 1.82-3.57 2.273-.746-.713-1.36-1.433-1.75-2.115-.126-.222-.133-.328-.132-.355a.423.423 0 0 1 .125-.095c.147-.086.366-.164.655-.24.182-.049.326-.08.476-.115.123-.027.25-.056.408-.095 2.195-.55 4.312-2.162 5.848-3.698.752-.752 1.707-1.657 2.836-2.157 1.08-.478 2.319-.587 3.748.27 1.055.633 1.62 1.53 1.755 2.656.139 1.164-.176 2.637-1.04 4.366-.993 1.986-1.97 3.689-2.867 4.885-.45.6-.86 1.044-1.22 1.333-.371.297-.613.367-.742.367-.058 0-.234-.027-.557-.138-.303-.104-.68-.261-1.112-.468-.303-.145-.63-.313-.972-.5.62-.399 1.26-.93 1.84-1.47.967-.902 1.884-1.946 2.425-2.758a.75.75 0 1 0-1.248-.832c-.459.688-1.291 1.645-2.2 2.493-.887.828-1.744 1.454-2.327 1.68a27.932 27.932 0 0 1-2.665-1.893c1.134-.463 2.088-1.075 3.346-2.334Z"/></svg>
